!!!!SEGMENT: pl-wtm--r-794-m_moniuszko-stanislaw--szczescie.krn
!!!cenid: 18xx:2859
!!!COM: Moniuszko, Stanisław
!!!COM-rismid: pe30008351
!!!CDT: 1819/05/05-1872/06/04
!!!CNT: Polish
!!!OTL: Szczęście
!!!PDT:
!!!AGN:
!!!SMS-siglum: PL-Wtm
!!!SMS-shelfmark: R 794/M
!!!SMS-shelfwork: W
!!!SMS-variant:
!!!SMS-altvar:
!!!NIFC-rismid: 1001100259
!!!URL-scan: http://repozytorium.nifc.pl/skany/pl-wtm-nut--r794m
!!!ONB-nifc:
**kern	**fing	**kern	**dynam	**kern	**text	**text	**text	**text	**dynam
*part2	*	*part2	*part2	*part1	*part1	*part1	*part1	*part1	*part1
*staff3	*	*staff2	*	*staff1	*staff1	*staff1	*staff1	*staff1	*
*I"Piano	*	*I"Piano	*	*I"Voce	*	*	*	*	*
*clefF4	*	*clefG2	*	*clefG2	*	*	*	*	*
*k[b-e-a-d-]	*	*k[b-e-a-d-]	*	*k[b-e-a-d-]	*	*	*	*	*
*M6/8	*	*M6/8	*	*M6/8	*	*	*	*	*
!	!	!LO:TX:a:B:t=Andantino	!	!LO:TX:a:B:t=Andantino	!	!	!	!	!
(<8qFF/	.	.	.	.	.	.	.	.	.
!	!	!	!LO:DY:rj	!	!	!	!	!	!
(>4F\)	.	4r	mp >	4r	.	.	.	.	.
8D-/	.	8r	.	8r	.	.	.	.	.
=!|:	=!|:	=!|:	=!|:	=!|:	=!|:	=!|:	=!|:	=!|:	=!|:
!	!	!	!	!	!	!	!	!	!LO:DY:a
8C/L	.	4r	.	8c/	1. Znu-	2. Mo-	3. A	4. Mo-	p
8AA-/	.	.	.	8f/	-żo-	-że	mo-	-że	.
8GG/J	.	8r	]]	8g/	-ny	w sza-	-że	przy	.
=1	=1	=1	=1	=1	=1	=1	=1	=1	=1
2.FF\) 2.F	.	(<8A-/L	p	4a-/	ży-	-leń-	szczęś-	to-	.
.	.	8c/	.	.	.	.	.	.	.
.	.	8f/J)	.	8a-/	-cia	-stwie	-cie	-bie,	.
.	.	(<8B-/L	<	8g^>/	wal-	i	znaj-	o	.
.	.	8c/	.	8a-/	-ką	u-	-dę	dziew-	.
!	!	!	!	!	!	!	!	!	!LO:DY:a
.	.	8en/J)	[[	8g/	co-	-po-	na	-czę	<
=2	=2	=2	=2	=2	=2	=2	=2	=2	=2
!	!	!	!	!	!	!	!	!	!LO:DY:a
2.FF\ 2.F	.	(8A-^</L	>	4g/	-dzien-	-je-	woj-	ho-	[>
.	.	8c/	.	.	.	.	.	.	.
.	.	8f/J	.	8f/	-ną	-niu,	-nie,	-że,	]
!	!	!	!	!	!	!	!	!	!LO:DY:a
!	!	!	!	!	!	!	!	!	!LO:DY:a
.	.	8a-/L	]	8f/	Py-	Pieś-	Da-	Bóg	mp >
.	.	8f/	.	8a-/	-tam,	-nią	-jąc	mi	]
!	!	!	!	!	!	!	!	!	!LO:DY:a
.	.	8c/J)	.	8b-/	gdzie	i	o-	prze-	<[
=3	=3	=3	=3	=3	=3	=3	=3	=3	=3
*	*	*	*^	*	*	*	*	*	*
!	!	!	!	!	!	!	!	!	!	!LO:DY:a
!	!	!	!	!LO:DY:a	!	!	!	!	!	!LO:DY:a
4.FF\ 4.F	.	(8A-^</L	sf	mp	4cc\	szczęś-	wi-	-dwa-	-zna-	sf >
.	.	8c/	.	.	.	.	.	.	.	.
.	.	8f/J)	>	.	8cc\	-cie	-nem	-gą	-czył	.
4.FF\ 4.F	.	(8A-/L	.	.	4bn^>\	da-	go-	świet-	szczę-	.
.	.	8dn/	.	.	.	.	.	.	.	.
.	.	8f/J)	]]	.	8b/	-je	-niąc	-ny	-ścia	]
*	*	*	*v	*v	*	*	*	*	*	*
!!LO:LB:g=original
=4	=4	=4	=4	=4	=4	=4	=4	=4	=4
!	!	!	!LO:HP:t=dimi.	!	!	!	!	!	!
2.FF\ 2.F	.	(8A-/L	>	[4.cc\	1. świat:	2. czas,	3. wzór,	4. raj?	.
.	.	8c/	.	.	.	.	.	.	.
.	.	8f/J)	.	.	.	.	.	.	.
.	.	(8A-/L	.	8cc\]	.	.	.	.	.
!	!	!	!	!	!	!	!	!	!LO:DY:a
!	!	!	!	!	!	!	!	!	!LO:DY:a
.	.	8c/	.	8b-X/	Mo-	Mo-	Al-	Jeś-	p <
.	.	8f/J)	.	8a-/	-że	-że	-bo	-li	[[
=5	=5	=5	=5	=5	=5	=5	=5	=5	=5
*	*	*	*	*^	*	*	*	*	*
!	!	!	!	!	!	!	!	!	!	!LO:DY:a
2.FF\ 2.C 2.G	.	(<8B-^/L	.	4g/	4ryy	znaj-	w sła-	ży-	tak	>
.	.	8c/	.	.	.	.	.	.	.	.
.	.	8en/J)	.	8g/	8ryy	-dę	-wie	-jąc	jest,	]
.	.	(8B-/L	.	8g^>/	8g\L	w noc	i	ci-	bła-	.
!	!	!	!	!	!	!	!	!	!	!LO:HP:a:t=dimi
.	.	.	.	(>8qb-/	.	.	.	.	.	>
.	.	8c/	.	8a-/)	8a-\J	.	.	-cho,	-gam	.
.	.	8e/J)	.	8g/	8g\	wio-	zna-	spo-	w po-	.
*	*	*	*	*v	*v	*	*	*	*	*
=6	=6	=6	=6	=6	=6	=6	=6	=6	=6
4.FF\ 4.C 4.F	.	(8A-/L	.	4g/	-sen-	-cze-	-koj-	-ko-	.
.	.	8c/	.	.	.	.	.	.	.
.	.	8f/J)	.	8f/	-ną	-niu	-nie,	-rze,	.
!	!	!	!	!	!	!	!	!	!LO:DY:a:rj
(<4.AA-/	.	(8c/L	pp	8f/	Ów	Spo-	Kry-	Szcze-	pp
.	.	8f/	.	8en/	cza-	-kój	-jąc	-rą	.
.	.	8c/J)	.	8f/	-ro-	i	me	od-	.
=7	=7	=7	=7	=7	=7	=7	=7	=7	=7
*	*	*	*	*^	*	*	*	*	*
4.GG\) 4.G	.	(8Bn/L	<	4g^>/	4ryy	-dziej-	szczęś-	tros-	-po-	.
!	!	!LO:TX:b:i:t=rite.	!	!	!	!	!	!	!	!
.	.	8dn/	.	.	.	.	.	.	.	.
!	!	!	!	!LO:TX:b:t=rite.	!	!	!	!	!	!LO:DY:a
.	.	8g/J)	[	8g/	8ryy	-ski	-cie	-ki	-wiedź	<
4.GG\ 4.G	.	(8B^</L	.	8f/	8f\L	pa-	znaj-	w klasz-	za-	.
!	!	!	!	!	!	!	!	!	!	!LO:DY:a
.	.	8d/	>	8dn/	8dn\J	-pro-	.	-tor-	-raz	[ >
.	.	8f/J)	]]	8an/	8an\	-ci	-dę	-ny	mi-	]]
*	*	*	*	*v	*v	*	*	*	*	*
*ped	*	*	*	*	*	*	*	*	*
=8	=8	=8	=8	=8	=8	=8	=8	=8	=8
4CC/ 4C	.	8r	.	[>4.g^>/	kwiat?	wraz?	mur?	-daj!	.
.	.	(8G/L	.	.	.	.	.	.	.
!	!	!	!LO:HP:i:t=P:problem:cre-scen-do.	!	!	!	!	!	!
8r	.	8c/J	<	.	.	.	.	.	.
!LO:TX:a:i:t=a tempo.	!	!	!	!	!	!	!	!	!
4r	.	8en/L	.	8g/]	.	.	.	.	.
!	!	!	!	!LO:TX:b:i:t=a tempo.	!	!	!	!	!LO:DY:a:rj
.	.	8c/	.	8en/	Mo-	Znaj-	Kry-	Bła-	mp
8r	.	8G/J)	.	8g/	-że	-dę	-jąc	-gam	.
!!LO:LB:g=original
=9	=9	=9	=9	=9	=9	=9	=9	=9	=9
!	!	!	!	!	!	!	!	!	!LO:HP:a:i:t=crescen.
4CC/ 4C	.	8r	.	[4.cc\	1. znaj-	2. szczęś-	3. tros-	4. cię,	<
.	.	(<8G/L	[	.	.	.	.	.	.
8r	.	8c/J	.	.	.	.	.	.	.
4r	.	8en/L	.	8cc\]	.	.	.	.	.
.	.	8c/	.	8g/	-dę	-cie	-ki	daj	.
!LO:TX:b:t=[coda]	!	!	!	!	!	!	!	!	!
8r	.	8G/J)	.	8cc/	ów	i	me	od-	.
=10	=10	=10	=10	=10	=10	=10	=10	=10	=10
!	!	!	!	!	!	!	!	!	!LO:DY:a
!	!	!	!LO:DY:rj	!	!	!	!	!	!LO:DY:a
4BBB-^>/ 4BB-	.	8r	f	(4.dd-X^>\	kwiat,	spo-	kry-	-po-	f >
.	.	8G/L 8d-X 8en	>	.	.	.	.	.	.
8r	.	8G/J 8d- 8e	.	.	.	.	.	.	.
4CC/ 4C	.	8r	]	8cc/)	.	.	.	.	]]
!	!	!	!	!	!	!	!	!	!LO:DY:a
.	.	8c/L 8e	p	8g/	znaj-	-kój	-jąc	-wiedź	p
8r	.	8B-/J 8c 8e	.	8a-/	-dę	ze	me	mi	.
=11	=11	=11	=11	=11	=11	=11	=11	=11	=11
*^	*^	*^	*	*^	*	*	*	*	*
!	!	!	!	!	!	!LO:HP:t=dimin.	!	!	!	!	!	!	!LO:HP:a:i:t=dimin.
((4.FF\ 4.F	4ryy	.	.	4.A-/ 4.c 4.f	4ryy	>	8f^>/L	8f\	cza-	sła-	tros-	szcze-	>
.	.	.	.	.	.	.	8en/J	8en\	.	.	-ki	.	.
!	!	!	!	!	!	!	!LO:TX:a:t=rallen.	!	!	!	!	!	!LO:HP:b
.	8ryy	.	.	.	8ryy	.	8f/	8f\	-ro-	-wą	w klasz-	-rą,	<
!	!	!	!	!LO:TX:b:t=rallent.	!	!	!	!	!	!	!	!	!
4BBB-/)) 4BB-	4ryy	.	.	(>8.g/^>L	4B-\ 4d-	.	8b-/L	4ryy	-dziej-	znaj-	-tor-	za-	[
!	!	!	!	!	!	!	!	!	!	!	!	!	!LO:HP:b
.	.	.	.	.	.	.	8a-/J	.	.	.	.	.	>
!	!	!	!	!	!	!LO:HP:a	!	!	!	!	!	!	!
.	.	.	.	16f/Jk)	.	>	.	.	.	.	.	.	.
8C/	(8CC\ 8C	.	5	8en/	8B-\ 8c	]]	8g/	8ryy	-ski	-dę	-ny	-raz	]
*	*	*v	*v	*	*	*	*	*	*	*	*	*	*
*	*	*	*	*	*	*v	*v	*	*	*	*	*
=12	=12	=12	=12	=12	=12	=12	=12	=12	=12	=12	=12
*	*	*^	*	*	*	*	*	*	*	*	*
!	!LO:TX:a:t=G	!	!	!LO:TX:a:t=a tempo	!	!	!LO:TX:a:t=a tempo	!	!	!	!	!
(2.C/	[2.FF\) 2.C	.	3_5	4A-/ 4f	4A-\	.	4f/	kwiat.	wraz.	mur.	daj!	.
.	.	.	.	((8c^/ 8a-	8ryy	mp	8r	.	.	.	.	.
.	.	.	.	4B-/)) 4g	4ryy	.	4r	.	.	.	.	.
!	!	!	!	!	!	!LO:HP:a	!	!	!	!	!	!
.	.	.	.	((8c/ 8a-^>	8ryy	p>	8r	.	.	.	.	.
*	*	*v	*v	*	*	*	*	*	*	*	*	*
*	*	*	*v	*v	*	*	*	*	*	*	*
=	=	=	=	=	=	=	=	=	=	=
4F/)	4FF\] 4F	.	4A-/)) 4f	]	4r	.	.	.	.	.
!	!	!	!LO:TX:a:t=Rękopis autora zaginiony.	!	!	!	!	!	!	!
(8D-/	8rCCyy	.	8r	mp >	8r	.	.	.	.	.
*v	*v	*	*	*	*	*	*	*	*	*
=13:|!	=13:|!	=13:|!	=13:|!	=13:|!	=13:|!	=13:|!	=13:|!	=13:|!	=13:|!
8C/L	.	4r	.	4r	.	.	.	.	.
8GG/	.	.	.	.	.	.	.	.	.
8AA-/J)	.	8r	]]	8r	.	.	.	.	.
=14	=14	=14	=14	=14	=14	=14	=14	=14	=14
!LO:TX:b:t=X to trzeba wypisać przed pieśnią na dolnym\nmarginesie.	!	!LO:TX:a:t=X\n ( Pieśń spisana przez J. Karłowicza,\ntak jak ją śpiewał Igna. Iwaszkiewicz. )	!LO:DY:rj	!	!	!	!	!	!
2.FF;</	.	2.A-^<;>/ 2.c 2.f	pp	2.r;>	.	.	.	.	.
==	==	==	==	==	==	==	==	==	==
*-	*-	*-	*-	*-	*-	*-	*-	*-	*-
!!!system-decoration: s1[(s2,s3)]
!!!ENC: Marcin Jachim
!!!END: 2021-08-06
!!!RDF**kern: > = above
!!!RDF**kern: < = below
!!!RDF**dynam: > = "dimin.", fontstyle = "normal"
